X:905
T:Gordon's Favourite
S:Various
Z:Nigel Gatherer
M:4/4
L:1/8
R:reel
K:Gmaj
D2 | G3 A BABd | edef gdBd | gfge dBGB | ABAG E2 D2 |
G3 A BABd | edef g2 ag | fafd egfe | d2 f2 d2 :|
z2 | e2 ce gece | d2 Bd gdBd | c2 Ac B2 GB | ABAG E2 D2 |
G3 A BABd | edef gfge | dBGB AcBA | G2 B2 G2 :|
